icons/chevron-down.svg

<?xml version="1.0" standalone="no"?><!-- Generator: Gravit.io --><svg xmlns="http://www.w3.org/2000/svg" xmlns:xlink="http://www.w3.org/1999/xlink" width="96" height="96"><path d=" M 90.8 31.049999999999997 L 51.7 70.25 L 48 71.75 L 44.3 70.25 L 5.2 31.049999999999997 C 4.4 30.35 4 29.35 4 28.25 C 4 27.15 4.4 26.15 5.2 25.450000000000003 C 5.9 24.65 6.9 24.25 8 24.25 C 9.1 24.25 10.1 24.65 10.8 25.450000000000003 L 48 62.55 L 85.2 25.450000000000003 C 85.9 24.65 86.9 24.25 88 24.25 C 89.1 24.25 90.1 24.65 90.8 25.450000000000003 C 91.6 26.15 92 27.15 92 28.25 C 92 29.35 91.6 30.35 90.8 31.049999999999997 Z " fill="#454545" stroke="none"/><mask id="_mask_lZTGG4DhxIyvobgivbDOklNkpmFy4FQx"><path d=" M 90.8 31.049999999999997 L 51.7 70.25 L 48 71.75 L 44.3 70.25 L 5.2 31.049999999999997 C 4.4 30.35 4 29.35 4 28.25 C 4 27.15 4.4 26.15 5.2 25.450000000000003 C 5.9 24.65 6.9 24.25 8 24.25 C 9.1 24.25 10.1 24.65 10.8 25.450000000000003 L 48 62.55 L 85.2 25.450000000000003 C 85.9 24.65 86.9 24.25 88 24.25 C 89.1 24.25 90.1 24.65 90.8 25.450000000000003 C 91.6 26.15 92 27.15 92 28.25 C 92 29.35 91.6 30.35 90.8 31.049999999999997 Z " fill="white" stroke="none"/></mask><path d=" M 90.8 31.049999999999997 L 51.7 70.25 L 48 71.75 L 44.3 70.25 L 5.2 31.049999999999997 C 4.4 30.35 4 29.35 4 28.25 C 4 27.15 4.4 26.15 5.2 25.450000000000003 C 5.9 24.65 6.9 24.25 8 24.25 C 9.1 24.25 10.1 24.65 10.8 25.450000000000003 L 48 62.55 L 85.2 25.450000000000003 C 85.9 24.65 86.9 24.25 88 24.25 C 89.1 24.25 90.1 24.65 90.8 25.450000000000003 C 91.6 26.15 92 27.15 92 28.25 C 92 29.35 91.6 30.35 90.8 31.049999999999997 Z " fill="none" stroke="none" stroke-width="16" mask="url(#_mask_lZTGG4DhxIyvobgivbDOklNkpmFy4FQx)"/></svg>

<svg xmlns="http://www.w3.org/2000/svg" width="96" height="96"><path d="M90.8 31.05l-39.1 39.2-3.7 1.5-3.7-1.5-39.1-39.2c-.8-.7-1.2-1.7-1.2-2.8 0-1.1.4-2.1 1.2-2.8.7-.8 1.7-1.2 2.8-1.2 1.1 0 2.1.4 2.8 1.2L48 62.55l37.2-37.1c.7-.8 1.7-1.2 2.8-1.2 1.1 0 2.1.4 2.8 1.2.8.7 1.2 1.7 1.2 2.8 0 1.1-.4 2.1-1.2 2.8z" fill="#454545"/></svg>
